X: 1
T: The Flowers Of Red Hill
R: reel
M: 4/4
L: 1/8
K: Ador
|: e~A3 gAfA | e~A3 edBd | e~A3 e2af | gedB GABd :||
| e~a3 b~a3 | eaag egdg | e~a3 b~a3 | edef gedg |
e~a3 b~a3 | eaaf ~g3a | b2bg aged | eaag edBd ||


Tune 442	Setting 29016

